X: 1391
T: Pick Your Partner
M:C|
L:1/8
N:"collected by McFadden"
B:O'Neill's 1391
Z:"Transcribed by Bob Safranek, rjs@gsp.org"
K:D
(ae)| fB ((3cBA) Bcde| fBBd e2 (de)| fB ((3cBA) Bcde|1 fbaf e2 :|2 fe^df e=dBc||
      d2 (fd) adfd | ((3ded) (fd) edBc | ((3ddd) (fd) adfd  | bgaf edBc |
      d2 (fd) adfd | d2      (fd) edBc | defg         Tagaf | bgaf e2 |]


